core/static/images/linkedin.svg

<?xml version="1.0" encoding="UTF-8"?>
<svg width="36px" height="36px" viewBox="0 0 36 36" version="1.1" xmlns="http://www.w3.org/2000/svg" xmlns:xlink="http://www.w3.org/1999/xlink">
    <!-- Generator: Sketch 46.1 (44463) - http://www.bohemiancoding.com/sketch -->
    <title>Group 4@2x</title>
    <desc>Created with Sketch.</desc>
    <defs></defs>
    <g id="Guerilla-Prototype-5" stroke="none" stroke-width="1" fill="none" fill-rule="evenodd">
        <g id="Prototype-5-Article" transform="translate(-59.000000, -453.000000)">
            <g id="Group-6" transform="translate(59.000000, 361.000000)">
                <g id="Group-12">
                    <g id="Group-4" transform="translate(0.000000, 92.000000)">
                        <rect id="Rectangle-2" fill="#0B89FF" x="0" y="0" width="36" height="36" rx="18"></rect>
                        <path d="M26,24.6363636 L22.6847954,24.6363636 L22.6847954,19.8426365 C22.6847954,18.587885 22.1662159,17.731301 21.0258702,17.731301 C20.1536336,17.731301 19.6685677,18.3093424 19.4427916,18.8664276 C19.3581256,19.0663845 19.3713547,19.3449271 19.3713547,19.6234698 L19.3713547,24.6363636 L16.0870179,24.6363636 C16.0870179,24.6363636 16.1293509,16.1447432 16.0870179,15.3728571 L19.3713547,15.3728571 L19.3713547,16.8266924 C19.565381,16.1910214 20.6148871,15.2837933 22.2896872,15.2837933 C24.3675329,15.2837933 26,16.6162573 26,19.4855082 L26,24.6363636 L26,24.6363636 Z M12.7656397,14.2141547 L12.7444732,14.2141547 C11.6861477,14.2141547 11,13.5060104 11,12.6083871 C11,11.6933004 11.7064323,11 12.7859243,11 C13.8645343,11 14.5277516,11.6915541 14.5489182,12.6057676 C14.5489182,13.5033908 13.8645343,14.2141547 12.7656397,14.2141547 L12.7656397,14.2141547 L12.7656397,14.2141547 Z M11.3783514,15.3728571 L14.3019755,15.3728571 L14.3019755,24.6363636 L11.3783514,24.6363636 L11.3783514,15.3728571 L11.3783514,15.3728571 Z" id="LinkedIn" fill="#FFFFFF"></path>
                    </g>
                </g>
            </g>
        </g>
    </g>
</svg>

<svg xmlns="http://www.w3.org/2000/svg" width="36" height="36" viewBox="0 0 36 36">
    <g fill="none" fill-rule="evenodd">
        <rect width="36" height="36" fill="#006CCC" rx="18"/>
        <path fill="#FFF" d="M26 24.636h-3.315v-4.793c0-1.255-.519-2.112-1.66-2.112-.871 0-1.356.578-1.582 1.135-.085.2-.072.479-.072.757v5.013h-3.284s.042-8.491 0-9.263h3.284v1.454c.194-.636 1.244-1.543 2.919-1.543 2.078 0 3.71 1.332 3.71 4.202v5.15zM12.766 14.214h-.022c-1.058 0-1.744-.708-1.744-1.606 0-.915.706-1.608 1.786-1.608 1.079 0 1.742.692 1.763 1.606 0 .897-.684 1.608-1.783 1.608zm-1.388 1.159h2.924v9.263h-2.924v-9.263z"/>
    </g>
</svg>
